source/images/icons/icon-utility/user-circle.svg

<?xml version="1.0" encoding="UTF-8"?>
<svg width="24px" height="24px" viewBox="0 0 24 24" version="1.1" xmlns="http://www.w3.org/2000/svg" xmlns:xlink="http://www.w3.org/1999/xlink">
    <!-- Generator: Sketch 55.2 (78181) - https://sketchapp.com -->
    <title>Icons/24px/User-Circle</title>
    <desc>Created with Sketch.</desc>
    <g id="Icons/24px/User-Circle" stroke="none" stroke-width="1" fill="none" fill-rule="evenodd">
        <path d="M6,18.7083195 L6,18 C6,16.3431458 7.34314575,15 9,15 L15,15 C16.6568542,15 18,16.3431458 18,18 L18,20.6312523 C18,20.7756504 17.9693945,20.9129002 17.9143166,21.0368688 C17.8344093,21.2410495 17.6871239,21.4204622 17.48234,21.538396 C15.8280851,22.4910704 13.9499566,23 12,23 C5.92486775,23 1,18.0751322 1,12 C1,5.92486775 5.92486775,1 12,1 C18.0751322,1 23,5.92486775 23,12 C23,13.9477573 22.4922199,15.8238659 21.5415799,17.4768075 C21.2662387,17.9555617 20.6549235,18.1204606 20.1761693,17.8451194 C19.697415,17.5697782 19.5325161,16.958463 19.8078573,16.4797087 C20.5851767,15.1281312 21,13.5954728 21,12 C21,7.02943725 16.9705627,3 12,3 C7.02943725,3 3,7.02943725 3,12 C3,14.6654994 4.15875192,17.0603579 6,18.7083195 Z M7.99801681,20.0634945 C9.20346862,20.6629243 10.5623702,21 12,21 C13.4095573,21 14.7700796,20.6762182 16,20.0647614 L16,18 C16,17.4477153 15.5522847,17 15,17 L9,17 C8.44771525,17 8,17.4477153 8,18 L8,20 C8,20.0213274 7.99933235,20.0424988 7.99801681,20.0634945 Z M12,14 C9.790861,14 8,12.209139 8,10 C8,7.790861 9.790861,6 12,6 C14.209139,6 16,7.790861 16,10 C16,12.209139 14.209139,14 12,14 Z M12,12 C13.1045695,12 14,11.1045695 14,10 C14,8.8954305 13.1045695,8 12,8 C10.8954305,8 10,8.8954305 10,10 C10,11.1045695 10.8954305,12 12,12 Z" id="Icon" fill="#ADB5BD"></path>
    </g>
</svg>

<svg width="24" height="24">
    <title>
        Icons/24px/User-Circle
    </title>
    <path d="M6 18.708V18a3 3 0 0 1 3-3h6a3 3 0 0 1 3 3v2.631c0 .145-.03.282-.086.406a.996.996 0 0 1-.432.501A10.953 10.953 0 0 1 12 23C5.925 23 1 18.075 1 12S5.925 1 12 1s11 4.925 11 11c0 1.948-.508 3.824-1.458 5.477a1 1 0 0 1-1.734-.997A8.953 8.953 0 0 0 21 12a9 9 0 1 0-15 6.708zm1.998 1.355c1.205.6 2.564.937 4.002.937 1.41 0 2.77-.324 4-.935V18a1 1 0 0 0-1-1H9a1 1 0 0 0-1 1v2c0 .021 0 .042-.002.063zM12 14a4 4 0 1 1 0-8 4 4 0 0 1 0 8zm0-2a2 2 0 1 0 0-4 2 2 0 0 0 0 4z" fill="#ADB5BD" fill-rule="evenodd"/>
</svg>
